packages/Snapp/src/MapIcon/index.svg

<?xml version="1.0" encoding="UTF-8"?>
<svg width="24px" height="24px" viewBox="0 0 24 24" version="1.1" xmlns="http://www.w3.org/2000/svg" xmlns:xlink="http://www.w3.org/1999/xlink">
    <title>Icons/24/Map</title>
    <g id="Icons/24/Map" stroke="none" stroke-width="1" fill="none" fill-rule="evenodd">
        <rect id="Container" fill-opacity="0" fill="#D8D8D8" fill-rule="nonzero" x="0" y="0" width="24" height="24"></rect>
        <path d="M2.41529,3.18876 C2.67606,3.00081 3.01128,2.94967 3.31623,3.05132 L3.31623,3.05132 L9,4.94591 L14.6838,3.05132 C14.889,2.98289 15.111,2.98289 15.3162,3.05132 L15.3162,3.05132 L21.3162,5.05132 C21.7246,5.18743 22,5.56957 22,5.99999568 L22,5.99999568 L22,19.9999957 C22,20.3214 21.8455,20.6233 21.5847,20.8112 C21.3239,20.9992 20.9887,21.0503 20.6838,20.9487 L20.6838,20.9487 L15,19.0541 L9.31623,20.9487 C9.11096,21.0171 8.88904,21.0171 8.68377,20.9487 L8.68377,20.9487 L2.68377,18.9487 C2.27543,18.8126 2,18.4304 2,17.9999957 L2,17.9999957 L2,3.99999568 C2,3.67856 2.15452,3.37671 2.41529,3.18876 Z M4,5.38743 L4,17.2792 L8,18.6126 L8,6.72076 L4,5.38743 Z M14,5.38743 L10,6.72076 L10,18.6126 L14,17.2792 L14,5.38743 Z M16,5.38743 L16,17.2792 L20,18.6126 L20,6.72076 L16,5.38743 Z" id="Shape" fill="#404040" fill-rule="nonzero"></path>
    </g>
</svg>

<svg viewBox="0 0 24 24" xmlns="http://www.w3.org/2000/svg" fill="currentColor" focusable="false">
  <path d="M2.415 3.189a1 1 0 01.901-.138L9 4.946l5.684-1.895a1 1 0 01.632 0l6 2A1 1 0 0122 6v14a1 1 0 01-1.316.949L15 19.054 9.316 20.95a1 1 0 01-.632 0l-6-2A1 1 0 012 18V4a1 1 0 01.415-.811zM4 5.387V17.28l4 1.334V6.72L4 5.387zm10 0l-4 1.334v11.892l4-1.334V5.387zm2 0V17.28l4 1.334V6.72l-4-1.334z" fill="none"/>
</svg>
